X: 3399
T: Berree Dhone
R: reel
M: 4/4
K: Dmajor
d2 D2 F>G A2|d>e f2 e2 c2|d>e f2 d>A F2|G>E C2 D4|
D>E D2 F>G F2|f>d f2 e2 c2|d>e f2 d>A F2|G>E C2 D4|
e2 A2 d>e f2|e>f g2 f>g a2|e2 A2 d>e f2|edcB A2 (3ABc|
d2 D2 F>G A2|d>e f2 e2 c2|d>e f2 d>A F2|G>E C2 D4||

